X: 475
T: Ba cong
L: 1/8
M: 2/4
K: Bb
g' f' e' f' [I:setbarnb 1]| 
c'4 | 
g' f' e' f' | 
c'4 | 
a bc'2 | 
g'f'2f' | 
c'2f'2 | 
c' e' c' b | 
bf2g | 
b2d' c' | 
b g f d | 
f4 |]

@@@ Tune index: 9349
